dist/img/partners/4.svg

<svg width="172" height="36" viewBox="0 0 172 36" fill="none" xmlns="http://www.w3.org/2000/svg">
<g clip-path="url(#clip0_216_695)">
<path fill-rule="evenodd" clip-rule="evenodd" d="M15.9539 7.4264L2.21484 15.5651L4.54866 16.5997C4.54866 16.5997 5.42337 16.1951 15.1893 10.5671C15.1893 10.5671 25.8828 4.46633 26.0144 4.46633C26.1455 4.46633 26.2529 9.14094 26.2529 14.8539V25.233L28.5867 26.6333V13.2551V0.5C28.5867 0.5 22.2603 3.79293 15.9539 7.4264ZM29.9869 4.46667C29.9869 4.46667 29.987 4.61473 29.987 16.9044V29.4333L20.8581 24.253L11.55 18.9333L9.92151 20.2252L21.1237 26.9513L32.3207 33.3357V18.4346V3.3L29.9869 4.46667ZM68.8137 7.7652C64.7333 8.56833 61.7676 11.359 60.7673 15.3369C59.2093 21.5347 63.0404 27.6363 69.0564 28.5384C71.9699 28.9752 76.6613 28.5323 78.3459 27.6615C83.5059 24.9936 85.5008 18.2951 82.7436 12.892C81.4899 10.4355 79.3092 8.85767 75.9631 7.98593C72.9459 7.20053 71.8547 7.16647 68.8137 7.7652ZM47.257 18.2456V28.7587L53.9083 28.6289L60.5596 28.4997L60.7029 26.5163L60.8466 24.533H56.3854H51.9246V16.133V7.733H49.5908H47.257V18.2456ZM87.3982 18.233V28.733H89.7319H92.0657L92.0807 24.4163L92.0951 20.0997L93.1309 21.3023C93.7003 21.964 95.1627 23.9063 96.3809 25.6189L98.5952 28.733H100.932C102.217 28.733 103.268 28.6201 103.268 28.4819C103.268 28.3443 101.693 26.0077 99.7672 23.2903C97.8419 20.5729 96.2666 18.1378 96.2666 17.8797C96.2666 17.6212 97.7368 15.3509 99.5339 12.8341C101.331 10.3179 102.801 8.1404 102.801 7.99574C102.801 7.85154 101.698 7.7414 100.351 7.75167L97.9002 7.77033L95.0997 11.835L92.2991 15.8997L92.1642 11.8163L92.0293 7.733H89.7137H87.3982V18.233ZM110.269 18.233V28.733H112.603H114.937V24.2997V19.8663H120.071H125.206V24.3239V28.782L127.656 28.6406L130.106 28.4997V18.233V7.96633L127.675 7.82587L125.242 7.6854L125.108 11.7925L124.972 15.8997H120.071H115.17L115.035 11.8163L114.9 7.733H112.585H110.269V18.233ZM133.607 18.2451V28.7573L140.725 28.6285L147.843 28.4997V26.633V24.7663L143.292 24.6329L138.742 24.4994V22.1829V19.8663H142.242H145.743V17.9997V16.133H142.242H138.742V13.7997V11.4663H143.176H147.61V9.59967V7.733H140.609H133.607V18.2451ZM150.877 18.2097V28.733H152.965H155.053L155.182 21.8679L155.311 15.0027L159.953 21.8679L164.596 28.733H167.071H169.548V18.233V7.733H167.226H164.905L164.776 14.4381L164.647 21.1431L160.409 14.5547L156.172 7.96633L153.525 7.82633L150.877 7.68633V18.2097ZM99.9026 17.8872L106.769 28.3485V7.99107L99.9026 17.8872ZM75.2405 12.1551C75.9733 12.5336 77.038 13.5967 77.6065 14.5165C78.4495 15.8801 78.6007 16.672 78.4238 18.8028C78.2301 21.1389 78.0033 21.6065 76.2861 23.2081C74.6748 24.7108 74.0424 24.9992 72.3634 24.9964C70.0908 24.9931 68.1318 23.9002 66.8132 21.9005C65.7257 20.2509 65.6435 16.6351 66.6503 14.6891C68.1281 11.8322 72.2589 10.6133 75.2405 12.1551Z" fill="#545458"/>
<path fill-rule="evenodd" clip-rule="evenodd" d="M14.2884 27.3297L28.1986 35.1724L27.9308 32.6341C27.9308 32.6341 27.1436 32.0781 17.3922 26.4249C17.3922 26.4249 6.76819 20.2041 6.70251 20.0901C6.63706 19.9764 10.6353 17.5508 15.5871 14.7L24.5835 9.52078L24.6326 6.79996L13.0367 13.4757L1.98103 19.8405C1.98103 19.8405 7.99215 23.6788 14.2884 27.3297Z" fill="#FFCC00"/>
</g>
<defs>
<clipPath id="clip0_216_695">
<rect width="170.833" height="35" fill="white" transform="translate(0.582031 0.5)"/>
</clipPath>
</defs>
</svg>

<svg width="172" height="36" viewBox="0 0 172 36" fill="none" xmlns="http://www.w3.org/2000/svg"><g clip-path="url(#clip0_216_695)" fill-rule="evenodd" clip-rule="evenodd"><path d="M15.954 7.426l-13.74 8.14L4.55 16.6s.874-.405 10.64-6.033c0 0 10.694-6.1 10.825-6.1.131 0 .239 4.674.239 10.387v10.379l2.334 1.4V.5S22.26 3.793 15.954 7.426zm14.033-2.96v24.968l-9.129-5.181-9.308-5.32-1.628 1.292 11.202 6.726 11.197 6.385V3.3l-2.334 1.167zm38.827 3.3c-4.08.802-7.046 3.593-8.047 7.57-1.558 6.199 2.273 12.3 8.29 13.202 2.913.437 7.604-.006 9.289-.877 5.16-2.667 7.155-9.366 4.398-14.769-1.254-2.457-3.435-4.034-6.78-4.906-3.018-.785-4.11-.82-7.15-.22zm-21.557 10.48v10.513l6.651-.13 6.652-.13.143-1.983.144-1.983h-8.922v-16.8h-4.668v10.513zm40.141-.013v10.5h4.668l.015-4.317.014-4.316 1.036 1.202c.57.662 2.032 2.604 3.25 4.317l2.214 3.114h2.337c1.285 0 2.336-.113 2.336-.251s-1.575-2.474-3.5-5.192c-1.926-2.717-3.501-5.152-3.501-5.41 0-.259 1.47-2.53 3.267-5.046 1.797-2.516 3.267-4.694 3.267-4.838 0-.144-1.103-.255-2.45-.244l-2.45.018-2.801 4.065-2.8 4.065-.136-4.084-.135-4.083h-4.631v10.5zm22.871 0v10.5h4.668v-8.867h10.269v8.916l2.45-.141 2.45-.141V7.966l-2.431-.14-2.433-.14-.134 4.107-.136 4.107h-9.802l-.135-4.084-.135-4.083h-4.631v10.5zm23.338.012v10.512l7.118-.129 7.118-.128v-3.734l-4.551-.133-4.55-.134v-4.633h7.001v-3.733h-7.001v-4.667h8.868V7.733h-14.003v10.512zm17.27-.035v10.523h4.176l.129-6.865.129-6.865 4.642 6.865 4.643 6.865h4.952v-21h-4.643l-.129 6.705-.129 6.705-4.238-6.588-4.237-6.589-2.647-.14-2.648-.14V18.21zm-50.974-.323l6.866 10.462V7.99l-6.866 9.896zM75.24 12.155c.733.379 1.798 1.442 2.367 2.362.843 1.363.994 2.155.817 4.286-.194 2.336-.42 2.803-2.138 4.405-1.611 1.503-2.244 1.791-3.923 1.788-2.272-.003-4.231-1.096-5.55-3.095-1.087-1.65-1.17-5.266-.163-7.212 1.478-2.857 5.609-4.076 8.59-2.534z" fill="#545458"/><path d="M14.288 27.33l13.91 7.842-.267-2.538s-.787-.556-10.539-6.21c0 0-10.624-6.22-10.69-6.334-.065-.114 3.933-2.54 8.885-5.39l8.997-5.18.049-2.72-11.596 6.676L1.98 19.84s6.011 3.839 12.307 7.49z" fill="#FC0"/></g><defs><clipPath id="clip0_216_695"><path fill="#fff" transform="translate(.582 .5)" d="M0 0h170.833v35H0z"/></clipPath></defs></svg>
